tools/download-figma-icons/icons/solid/football.svg

<svg width="24" height="24" viewBox="0 0 24 24" fill="none" xmlns="http://www.w3.org/2000/svg">
<path fill-rule="evenodd" clip-rule="evenodd" d="M17.327 19.8685L17.2295 19.8632C16.8673 19.8632 16.5433 20.08 16.4008 20.4145L15.5233 22.4912C15.44 22.6877 15.4828 22.9142 15.632 23.0694C15.734 23.1767 15.8728 23.2329 16.0145 23.2329C16.0775 23.2329 16.1405 23.2209 16.202 23.1984C17.5407 22.6869 18.7662 21.9505 19.8417 21.0092C19.9999 20.8712 20.0607 20.65 19.9962 20.4475C19.9302 20.2435 19.7509 20.0987 19.5387 20.0785L17.327 19.8685ZM6.62697 20.0733C6.50697 19.7058 6.16648 19.4553 5.77874 19.4508L3.67503 19.426H3.66753C3.45528 19.426 3.26404 19.552 3.17854 19.75C3.09229 19.948 3.13354 20.1753 3.28204 20.329C4.22552 21.307 5.31975 22.1117 6.53247 22.72C6.60822 22.7582 6.68847 22.777 6.76947 22.777C6.89396 22.777 7.01696 22.7335 7.11596 22.648C7.28096 22.507 7.34471 22.282 7.27796 22.0772L6.62697 20.0733ZM22.9714 10.9835C23.0681 11.0615 23.1851 11.0997 23.3036 11.0997C23.3944 11.0997 23.4851 11.078 23.5676 11.0315C23.7589 10.9242 23.8639 10.7157 23.8354 10.5012C23.6681 9.1925 23.2849 7.92728 22.6969 6.7408C22.6031 6.55181 22.4119 6.43106 22.1922 6.44831C21.9777 6.45956 21.7917 6.5953 21.7174 6.79705L21.0402 8.64576C20.9074 9.00876 21.0214 9.416 21.3229 9.65899L22.9714 10.9835ZM19.6054 10.3392L16.9572 11.357C16.7053 11.4537 16.511 11.657 16.424 11.915L15.2173 15.5374C15.1393 15.7721 15.161 16.0316 15.2773 16.2506L16.328 18.2051C16.4698 18.4728 16.7353 18.6506 17.0495 18.6798C17.18 18.6888 20.4364 19.0128 21.0672 19.0796C21.0897 19.0811 21.1122 19.0818 21.1339 19.0818C21.4459 19.0818 21.7279 18.9348 21.8981 18.6798C22.9181 17.1686 23.5631 15.4954 23.8151 13.7052C23.8594 13.3819 23.7319 13.0594 23.4821 12.8607C22.5664 12.1347 20.4964 10.4787 20.4964 10.4787C20.2497 10.2792 19.9092 10.226 19.6054 10.3392ZM14.369 17.0043C14.2131 16.7148 13.9123 16.5318 13.5838 16.5288L10.0109 16.486C9.73189 16.486 9.47315 16.609 9.30065 16.8228C9.05241 17.1318 7.67994 18.8027 7.63494 19.087C7.62069 19.1702 7.61769 19.255 7.62369 19.3397C7.64169 19.594 7.74968 19.8295 7.82618 20.0717C8.15093 21.1052 8.50867 22.1207 8.83641 23.1414C8.93691 23.4511 9.2009 23.6859 9.5234 23.7519C10.3244 23.9161 11.1261 24.0001 11.9076 24.0001C12.3103 24.0001 12.7266 23.9739 13.1803 23.9229C13.5103 23.8839 13.7931 23.6701 13.9168 23.3664C14.3773 22.2482 15.4415 19.7162 15.4408 19.717C15.5488 19.4627 15.5353 19.1785 15.4055 18.9362L14.369 17.0043ZM8.38268 16.1178C8.57393 15.8786 8.63093 15.5628 8.53643 15.2734L7.4287 11.8647C7.33646 11.5797 7.11146 11.3599 6.82422 11.2759L4.19477 10.502C3.90228 10.4172 3.58953 10.4855 3.36454 10.6744L0.414096 13.1269C0.169601 13.3301 0.0496035 13.6586 0.101352 13.9864C0.318098 15.3131 0.755339 16.5843 1.40033 17.7641C1.55932 18.0573 1.86082 18.2425 2.18706 18.247L6.18898 18.2995C6.46797 18.2995 6.72672 18.1765 6.89921 17.9621L8.38268 16.1178ZM3.71478 8.79423C3.81903 9.05597 4.03278 9.25022 4.29977 9.32747L7.30346 10.2117C7.38671 10.2364 7.47296 10.2492 7.55771 10.2492C7.7452 10.2492 7.9327 10.1907 8.08795 10.079L10.9206 8.039C11.1674 7.862 11.3076 7.57475 11.2971 7.27026L11.1704 4.07758C11.1599 3.79933 11.0234 3.54509 10.7954 3.37934L7.78345 1.20963C7.52096 1.01689 7.16846 0.98389 6.86172 1.12414L6.85797 1.12564C5.18325 1.91162 3.68854 3.10035 2.53506 4.56432C2.33181 4.82081 2.27856 5.16655 2.39856 5.4673L3.71478 8.79423ZM11.3121 2.32486C11.4134 2.39836 11.5311 2.43511 11.6489 2.43511C11.7719 2.43511 11.8941 2.39536 11.9969 2.31661L13.6738 1.05963C13.8471 0.929137 13.9228 0.708642 13.8673 0.497146C13.8118 0.28715 13.6386 0.132653 13.4256 0.104904C12.2324 -0.0563427 11.0721 -0.0315932 9.87741 0.178403C9.66891 0.215902 9.50317 0.374899 9.45517 0.582644C9.40717 0.79264 9.48817 1.01014 9.66216 1.13538L11.3121 2.32486ZM12.4559 7.28976C12.4664 7.56801 12.6089 7.83125 12.8354 7.9925L15.8345 10.121C15.9913 10.2312 16.1743 10.2875 16.3573 10.2875C16.4668 10.2875 16.5778 10.268 16.6813 10.226L19.2665 9.23373C19.508 9.13998 19.6992 8.94573 19.7892 8.69974L21.1302 5.04431C21.2434 4.73307 21.1774 4.38282 20.9569 4.12933C19.748 2.75011 18.2142 1.64613 16.5223 0.938143C16.235 0.817395 15.8698 0.856395 15.6185 1.04539L12.6869 3.2466C12.4499 3.42509 12.3149 3.70784 12.3261 4.00408L12.4559 7.28976ZM12.4363 9.12794C12.1251 8.90745 11.6886 8.91045 11.3864 9.13169L8.98117 10.8649C8.66243 11.0959 8.52893 11.5024 8.64893 11.8766L9.57141 14.7101C9.6914 15.0791 10.0319 15.3303 10.4189 15.3341L13.3956 15.3693C13.7968 15.3633 14.1358 15.1218 14.2581 14.7528L15.2135 11.8864C15.3395 11.5069 15.2068 11.0967 14.8805 10.8642L12.4363 9.12794ZM0.903088 7.31074C0.987086 7.11199 1.19108 6.9665 1.39808 6.989C1.61632 6.99125 1.80832 7.12324 1.88857 7.32349L2.5643 9.02146C2.71055 9.38595 2.60405 9.79919 2.30256 10.0497L0.873838 11.2362C0.77559 11.3172 0.656343 11.3592 0.534845 11.3592C0.447847 11.3592 0.360849 11.3382 0.27985 11.2947C0.0886043 11.1919 -0.0201435 10.9864 0.00310599 10.7727C0.129853 9.58244 0.432097 8.41697 0.903088 7.31074Z" fill="black"/>
</svg>

<svg xmlns="http://www.w3.org/2000/svg" width="24" height="24" fill="none" viewBox="0 0 24 24"><path fill="currentColor" fill-rule="evenodd" d="m17.327 19.869-.098-.006a.9.9 0 0 0-.828.552l-.878 2.076a.533.533 0 0 0 .679.707 12 12 0 0 0 3.64-2.189.534.534 0 0 0-.303-.93zm-10.7.204a.9.9 0 0 0-.848-.622l-2.104-.025h-.007a.53.53 0 0 0-.49.324.53.53 0 0 0 .104.579 12 12 0 0 0 3.25 2.391.52.52 0 0 0 .584-.072.53.53 0 0 0 .162-.57zm16.344-9.09a.535.535 0 0 0 .864-.482 11.8 11.8 0 0 0-1.138-3.76.515.515 0 0 0-.505-.293.53.53 0 0 0-.475.349l-.677 1.849a.9.9 0 0 0 .283 1.013zm-3.366-.644-2.648 1.018a.9.9 0 0 0-.533.558l-1.207 3.622a.9.9 0 0 0 .06.714l1.051 1.954a.9.9 0 0 0 .721.475c.131.009 3.387.333 4.018.4l.067.002a.9.9 0 0 0 .764-.402 11.75 11.75 0 0 0 1.917-4.975.92.92 0 0 0-.333-.844c-.916-.726-2.986-2.382-2.986-2.382a.91.91 0 0 0-.89-.14m-5.236 6.665a.9.9 0 0 0-.785-.475l-3.573-.043a.9.9 0 0 0-.71.337c-.249.309-1.621 1.98-1.666 2.264a1 1 0 0 0-.011.253c.018.254.126.49.202.732.325 1.033.683 2.049 1.01 3.07.1.31.365.544.687.61.801.164 1.603.248 2.385.248.402 0 .819-.026 1.272-.077a.91.91 0 0 0 .737-.557c.46-1.118 1.524-3.65 1.524-3.649a.9.9 0 0 0-.036-.78zm-5.986-.886a.9.9 0 0 0 .153-.845L7.43 11.865a.9.9 0 0 0-.605-.59l-2.63-.773a.9.9 0 0 0-.83.172l-2.95 2.453a.93.93 0 0 0-.313.86 11.8 11.8 0 0 0 1.3 3.777c.158.293.46.479.786.483l4.002.052a.9.9 0 0 0 .71-.337zM3.715 8.794a.9.9 0 0 0 .585.533l3.003.885a.9.9 0 0 0 .785-.133l2.833-2.04a.9.9 0 0 0 .376-.769l-.127-3.192a.9.9 0 0 0-.375-.699L7.783 1.21a.91.91 0 0 0-.921-.085l-.004.002a12.06 12.06 0 0 0-4.323 3.438.91.91 0 0 0-.136.903zm7.597-6.47a.57.57 0 0 0 .685-.007l1.677-1.257a.53.53 0 0 0 .193-.563.53.53 0 0 0-.441-.392 11.4 11.4 0 0 0-3.549.073.533.533 0 0 0-.215.957zm1.144 4.966c.01.278.153.541.38.702l2.999 2.129a.91.91 0 0 0 .846.105l2.585-.992a.9.9 0 0 0 .523-.534l1.341-3.656a.92.92 0 0 0-.173-.915A12.2 12.2 0 0 0 16.522.94a.94.94 0 0 0-.903.106l-2.932 2.202a.9.9 0 0 0-.36.757zm-.02 1.838a.915.915 0 0 0-1.05.004l-2.405 1.733a.91.91 0 0 0-.332 1.012l.922 2.833a.9.9 0 0 0 .848.624l2.977.035a.905.905 0 0 0 .862-.616l.956-2.867a.9.9 0 0 0-.334-1.022zM.903 7.31c.084-.199.288-.344.495-.322.218.002.41.134.49.334l.676 1.698a.9.9 0 0 1-.261 1.029l-1.43 1.186a.53.53 0 0 1-.593.059.53.53 0 0 1-.277-.522c.127-1.19.43-2.356.9-3.462" clip-rule="evenodd"/></svg>
